X:179
T:Toss the Feathers (r)
B:NFID.168b
179toss
S:F&MB
N:Note that NF shows twelve measures in second part. I have
added a version where the second part consists of four bars plus
two four-bar endings - in other words, same amount of measures
arranged a little differently. [BB]
L:1/8
M:C
R:reel % A-B-A
Q:360
K:Em
%A
D|EBB2 EBEB|EeBA FADF|EBB2 EBEB|eAge dBAF|
(3EEE BE (3EEE BE|EeBA FADF|(3EEE BE (3EEE BE|eage edBd||
%B
Bdef gfge|fede feef|gebe gebe|fede fbef|
gb (3bbb fa (3aaa|efge dBAF|gfed efge|fede feef||
gebe gebe|fede feef|gb (3bbb fa (3aaa|efge dBAF|]
%%%
P:version with amended second part
EBB2 EBEB|EeBA FADF|EBB2 EBEB|eAge dBAF|
(3EEE BE (3EEE BE|EeBA FADF|(3EEE BE (3EEE BE|eage edBd||
%B
Bdef gfge|fede feef|gebe gebe|fede fbef|
[1 gb (3bbb fa (3aaa|efge dBAF|gfed efge|fede fee|
[2 gebe gebe|fede feef|gb (3bbb fa (3aaa|efge dBAF|]

%%%

